X:6
T:Menuette ur J H Anderssons notbok (Ma11 - 6)
R:Menuett
O:Fjärås, Halland
B:J H Anderssons notbok
N:Nr 6 i Ma11.
Z:Till abc Jonas Brunskog
M:3/4
L:1/8
Q:1/4=130
K:D
D3 E ((3FED)|A3 G ((3FED)|B2 Bd cd|(e/d/c/d/) A4|
G2 GF GF|DF AB cd|EA AG GE|F4 E2:|
|:A3 B ((3cBA)|e3 d ((3cBA)|g2 (gf) (fe)|eB dB A2|
G2 GF GF|DF AB cd|BA/G/ FE/D/ CD/E/|TE4 D2:|

